dist/svg/wipe.svg

<!-- Generated by Trend Micro Style Portal -->
<svg version="1.1" xmlns="http://www.w3.org/2000/svg" width="16" height="16" viewBox="0 0 16 16">
  <title>wipe</title>
  <path fill="rgb(34,34,34)" d="M6.114 5.93c1.738 1.828 3.823 3.308 6.152 4.336l0.122 0.048c-0.762 1.903-2.114 3.436-3.826 4.408l-0.043 0.023c-0.265 0.152-0.583 0.241-0.921 0.241-0.037 0-0.074-0.001-0.11-0.003l0.005 0c-5.606-0.379-7.493-6.983-7.493-6.983 2.292-0.193 4.378-0.938 6.166-2.101l-0.052 0.031zM12.14 6.355l-0.248-0.186 4.108-4.108-1.061-1.061-4.26 4.26-0.498-0.373c-0.33-0.249-0.748-0.399-1.2-0.399-0.426 0-0.821 0.133-1.145 0.359l0.007-0.004c-0.247 0.169-0.534 0.356-0.84 0.551 1.587 1.643 3.478 2.981 5.583 3.925l0.114 0.046c0.094-0.331 0.175-0.736 0.229-1.149l0.005-0.045c0.007-0.064 0.011-0.138 0.011-0.213 0-0.654-0.314-1.235-0.8-1.599l-0.005-0.004z"></path>
</svg>

<svg width="16" height="16" viewBox="0 0 16 16" fill="rgb(34, 34, 34)" xmlns="http://www.w3.org/2000/svg"><title>wipe</title><path d="M6.114 5.93C7.852 7.758 9.937 9.238 12.266 10.266L12.388 10.314C11.626 12.217 10.274 13.75 8.562 14.722L8.519 14.745C8.254 14.897 7.936 14.986 7.598 14.986C7.561 14.986 7.524 14.985 7.488 14.983H7.493C1.887 14.604 0 8 0 8C2.292 7.807 4.378 7.062 6.166 5.899L6.114 5.93ZM12.14 6.355L11.892 6.169L16 2.061L14.939 1L10.679 5.26L10.181 4.887C9.851 4.638 9.433 4.488 8.981 4.488C8.555 4.488 8.16 4.621 7.836 4.847L7.843 4.843C7.596 5.012 7.309 5.199 7.003 5.394C8.59 7.037 10.481 8.375 12.586 9.319L12.7 9.365C12.794 9.034 12.875 8.629 12.929 8.216L12.934 8.171C12.941 8.107 12.945 8.033 12.945 7.958C12.945 7.304 12.631 6.723 12.145 6.359L12.14 6.355Z" fill="rgb(34, 34, 34)" fill-opacity="1.00"/></svg>
